.gitbook/assets/CI Debugger (3).svg

<svg xmlns="http://www.w3.org/2000/svg" width="404" height="251" fill="none" viewBox="0 0 404 251"><path fill="#022719" d="M.5.5h403v250H.5z"/><path stroke="#000" d="M.5.5h403v250H.5z"/><path stroke="#000" stroke-opacity=".2" d="M.5.5h403v250H.5z"/><path fill="#F0894F" fill-rule="evenodd" d="M190.014 155.912c13.605 0 24.634-11.029 24.634-24.633 0-13.605-11.029-24.634-24.634-24.634-13.604 0-24.633 11.029-24.633 24.634 0 13.604 11.029 24.633 24.633 24.633Zm0 6.134c16.993 0 30.768-13.775 30.768-30.767 0-16.993-13.775-30.768-30.768-30.768-16.992 0-30.767 13.775-30.767 30.768 0 16.992 13.775 30.767 30.767 30.767Z" clip-rule="evenodd"/><path fill="#F0894F" fill-rule="evenodd" d="M213.485 144.494a3.066 3.066 0 0 1 4.337 0l10.256 10.256a3.066 3.066 0 1 1-4.337 4.336l-10.256-10.255a3.068 3.068 0 0 1 0-4.337Zm-46.941 0a3.066 3.066 0 0 0-4.337 0l-10.256 10.256a3.066 3.066 0 1 0 4.337 4.336l10.256-10.255a3.068 3.068 0 0 0 0-4.337Zm0-26.43a3.068 3.068 0 0 1-4.337 0l-10.256-10.256a3.066 3.066 0 1 1 4.337-4.337l10.256 10.256a3.068 3.068 0 0 1 0 4.337Zm46.941 0a3.068 3.068 0 0 0 4.337 0l10.256-10.256a3.066 3.066 0 1 0-4.337-4.337l-10.256 10.256a3.068 3.068 0 0 0 0 4.337Zm-23.471-14.285a3.067 3.067 0 0 1 3.067 3.067v49.066a3.067 3.067 0 1 1-6.133 0v-49.066a3.067 3.067 0 0 1 3.066-3.067Z" clip-rule="evenodd"/><path fill="#F0894F" fill-rule="evenodd" d="M203.576 107.361c0-7.49-6.072-13.561-13.562-13.561-7.489 0-13.561 6.072-13.561 13.561a3.067 3.067 0 1 1-6.133 0c0-10.877 8.818-19.694 19.694-19.694 10.877 0 19.695 8.817 19.695 19.694a3.067 3.067 0 1 1-6.133 0Z" clip-rule="evenodd"/></svg>

<svg width="404" height="251" viewBox="0 0 404 251" fill="none" xmlns="http://www.w3.org/2000/svg">
<rect x="0.5" y="0.5" width="403" height="250" fill="#022719"/>
<rect x="0.5" y="0.5" width="403" height="250" stroke="black"/>
<rect x="0.5" y="0.5" width="403" height="250" stroke="black" stroke-opacity="0.2"/>
<path fill-rule="evenodd" clip-rule="evenodd" d="M190.014 155.912C203.619 155.912 214.648 144.883 214.648 131.279C214.648 117.674 203.619 106.645 190.014 106.645C176.41 106.645 165.381 117.674 165.381 131.279C165.381 144.883 176.41 155.912 190.014 155.912ZM190.014 162.046C207.007 162.046 220.782 148.271 220.782 131.279C220.782 114.286 207.007 100.511 190.014 100.511C173.022 100.511 159.247 114.286 159.247 131.279C159.247 148.271 173.022 162.046 190.014 162.046Z" fill="#F0894F"/>
<path fill-rule="evenodd" clip-rule="evenodd" d="M213.485 144.494C214.683 143.296 216.625 143.296 217.822 144.494L228.078 154.75C229.276 155.947 229.276 157.889 228.078 159.086C226.88 160.284 224.939 160.284 223.741 159.086L213.485 148.831C212.288 147.633 212.288 145.691 213.485 144.494Z" fill="#F0894F"/>
<path fill-rule="evenodd" clip-rule="evenodd" d="M166.544 144.494C165.346 143.296 163.404 143.296 162.207 144.494L151.951 154.75C150.753 155.947 150.753 157.889 151.951 159.086C153.149 160.284 155.09 160.284 156.288 159.086L166.544 148.831C167.741 147.633 167.741 145.691 166.544 144.494Z" fill="#F0894F"/>
<path fill-rule="evenodd" clip-rule="evenodd" d="M166.544 118.064C165.346 119.261 163.404 119.261 162.207 118.064L151.951 107.808C150.753 106.61 150.753 104.668 151.951 103.471C153.149 102.273 155.09 102.273 156.288 103.471L166.544 113.727C167.741 114.924 167.741 116.866 166.544 118.064Z" fill="#F0894F"/>
<path fill-rule="evenodd" clip-rule="evenodd" d="M213.485 118.064C214.683 119.261 216.625 119.261 217.822 118.064L228.078 107.808C229.276 106.61 229.276 104.668 228.078 103.471C226.88 102.273 224.939 102.273 223.741 103.471L213.485 113.727C212.288 114.924 212.288 116.866 213.485 118.064Z" fill="#F0894F"/>
<path fill-rule="evenodd" clip-rule="evenodd" d="M190.014 103.779C191.708 103.779 193.081 105.152 193.081 106.846L193.081 155.912C193.081 157.606 191.708 158.979 190.014 158.979C188.321 158.979 186.948 157.606 186.948 155.912L186.948 106.846C186.948 105.152 188.321 103.779 190.014 103.779Z" fill="#F0894F"/>
<path fill-rule="evenodd" clip-rule="evenodd" d="M203.576 107.361C203.576 99.8715 197.504 93.8 190.014 93.8C182.525 93.8 176.453 99.8715 176.453 107.361C176.453 109.055 175.08 110.428 173.387 110.428C171.693 110.428 170.32 109.055 170.32 107.361C170.32 96.4842 179.138 87.6666 190.014 87.6666C200.891 87.6666 209.709 96.4842 209.709 107.361C209.709 109.055 208.336 110.428 206.642 110.428C204.949 110.428 203.576 109.055 203.576 107.361Z" fill="#F0894F"/>
</svg>
